icons/svgs/share-outline.svg

<svg width="24" height="24" viewBox="0 0 24 24" fill="none" xmlns="http://www.w3.org/2000/svg">
<path d="M13.25 11.375H14.1875C14.6953 11.375 15.125 11.8047 15.125 12.3125V13.25V14.3828L19.8125 10.125L15.125 5.90627V7.00002V7.93752C15.125 8.48439 14.6953 8.87502 14.1875 8.87502H13.25H8.875C6.10156 8.87502 3.875 11.1406 3.875 13.875C3.875 14.5 3.91406 15.0469 4.07031 15.5156C4.73438 13.1328 6.88281 11.375 9.5 11.375H13.25ZM13.25 13.25V13.2891H11.375H9.5C7.42969 13.2891 5.75 14.9688 5.75 17.0391C5.75 17.7031 5.90625 18.211 6.10156 18.6016C6.17969 18.7188 6.21875 18.7969 6.29688 18.9141C6.41406 19.0313 6.49219 19.1485 6.60938 19.2266C6.60938 19.2656 6.64844 19.2656 6.64844 19.3047C6.84375 19.5 6.96094 19.7344 6.96094 20.0078C6.96094 20.4375 6.64844 20.75 6.21875 20.75C6.10156 20.75 5.98438 20.75 5.90625 20.711C5.78906 20.6328 5.63281 20.5547 5.47656 20.4375C5.35938 20.3594 5.24219 20.2813 5.125 20.2031C4.96875 20.086 4.8125 19.9688 4.65625 19.8516C3.48438 18.836 2 16.9219 2 13.875C2 10.086 5.04688 7.00002 8.875 7.00002H11.375H13.25V5.12502V4.50002C13.25 4.03127 13.5234 3.56252 13.9922 3.3672C14.4219 3.17189 14.9688 3.25002 15.3203 3.60158L21.5703 9.22658C21.8438 9.46096 22 9.77346 22 10.125C22 10.5156 21.8438 10.8281 21.5703 11.0625L15.3203 16.6875C14.9688 17.0391 14.4219 17.1172 13.9922 16.9219C13.5234 16.7266 13.25 16.2578 13.25 15.75V15.125V13.25Z" fill="black"/>
</svg>

<svg xmlns="http://www.w3.org/2000/svg" width="24" height="24" fill="currentColor" class="icon-share-outline" viewBox="0 0 24 24">
  <mask id="a" width="20" height="18" x="2" y="3" maskUnits="userSpaceOnUse" style="mask-type:alpha">
    <path d="M13.25 11.375h.938a.95.95 0 0 1 .937.938v2.07l4.688-4.258-4.688-4.219v2.032c0 .546-.43.937-.937.937H8.875c-2.773 0-5 2.266-5 5 0 .625.04 1.172.195 1.64.664-2.382 2.813-4.14 5.43-4.14zm0 1.875v.04H9.5a3.75 3.75 0 0 0-3.75 3.75c0 .663.156 1.171.352 1.562.078.117.117.195.195.312.117.117.195.234.312.313 0 .039.04.039.04.078.195.195.312.43.312.703 0 .43-.313.742-.742.742-.117 0-.235 0-.313-.039-.117-.078-.273-.156-.43-.273l-.351-.235-.469-.351C3.484 18.836 2 16.922 2 13.875A6.86 6.86 0 0 1 8.875 7h4.375V4.5c0-.469.273-.937.742-1.133.43-.195.977-.117 1.328.235l6.25 5.625c.274.234.43.546.43.898 0 .39-.156.703-.43.938l-6.25 5.624c-.351.352-.898.43-1.328.235-.469-.195-.742-.664-.742-1.172z"/>
  </mask>
  <g mask="url(#a)">
    <path d="M0 0h24v24H0z"/>
  </g>
</svg>
